X:21157 
T:ORANGE ROGUE, The  
B:DMI.0978
Z:Nordberg/Black
R:set 6/8
%Q:1/4=160
M:6/8
L:1/8
K:Em
d|ege dBA|GEF G2A|BAB def|g2b agf|
ege dBA|GEF G2A|BAB dcd|e3e2:|
f|g2e a2f|g2B Bcd|g2e agf|g3 B2d|
g2e a2f|g2e fed|BAB def|g2b agf|
ege dBA|GEF G2A|BAB def|g2b agf|
ege dBA|GEF G2A|BAB dcd|e3e2:|

%%%

